packages/dialtone-icons/src/svg/icons/weather/haze.svg

<svg width="12" height="12" viewBox="0 0 12 12" fill="none" xmlns="http://www.w3.org/2000/svg">
<path fill-rule="evenodd" clip-rule="evenodd" d="M2.24645 2.74645C2.44171 2.55118 2.75829 2.55118 2.95355 2.74645L3.65355 3.44645C3.84882 3.64171 3.84882 3.95829 3.65355 4.15355C3.45829 4.34882 3.14171 4.34882 2.94645 4.15355L2.24645 3.45355C2.05118 3.25829 2.05118 2.94171 2.24645 2.74645Z" fill="black"/>
<path fill-rule="evenodd" clip-rule="evenodd" d="M0.5 6.5C0.5 6.22386 0.723858 6 1 6H2C2.27614 6 2.5 6.22386 2.5 6.5C2.5 6.77614 2.27614 7 2 7H1C0.723858 7 0.5 6.77614 0.5 6.5Z" fill="black"/>
<path fill-rule="evenodd" clip-rule="evenodd" d="M9.5 6.5C9.5 6.22386 9.72386 6 10 6H11C11.2761 6 11.5 6.22386 11.5 6.5C11.5 6.77614 11.2761 7 11 7H10C9.72386 7 9.5 6.77614 9.5 6.5Z" fill="black"/>
<path fill-rule="evenodd" clip-rule="evenodd" d="M9.75355 2.74645C9.94882 2.94171 9.94882 3.25829 9.75355 3.45355L9.05355 4.15355C8.85829 4.34882 8.54171 4.34882 8.34645 4.15355C8.15118 3.95829 8.15118 3.64171 8.34645 3.44645L9.04645 2.74645C9.24171 2.55118 9.55829 2.55118 9.75355 2.74645Z" fill="black"/>
<path fill-rule="evenodd" clip-rule="evenodd" d="M0.5 8.5C0.5 8.22386 0.723858 8 1 8H11C11.2761 8 11.5 8.22386 11.5 8.5C11.5 8.77614 11.2761 9 11 9H1C0.723858 9 0.5 8.77614 0.5 8.5Z" fill="black"/>
<path fill-rule="evenodd" clip-rule="evenodd" d="M0.5 10.5C0.5 10.2239 0.723858 10 1 10H11C11.2761 10 11.5 10.2239 11.5 10.5C11.5 10.7761 11.2761 11 11 11H1C0.723858 11 0.5 10.7761 0.5 10.5Z" fill="black"/>
<path fill-rule="evenodd" clip-rule="evenodd" d="M4.23223 4.73223C4.70107 4.26339 5.33696 4 6 4C6.66304 4 7.29893 4.26339 7.76777 4.73223C8.23661 5.20107 8.5 5.83696 8.5 6.5C8.5 6.77614 8.27614 7 8 7C7.72386 7 7.5 6.77614 7.5 6.5C7.5 6.10218 7.34196 5.72064 7.06066 5.43934C6.77936 5.15804 6.39782 5 6 5C5.60218 5 5.22064 5.15804 4.93934 5.43934C4.65804 5.72064 4.5 6.10218 4.5 6.5C4.5 6.77614 4.27614 7 4 7C3.72386 7 3.5 6.77614 3.5 6.5C3.5 5.83696 3.76339 5.20107 4.23223 4.73223Z" fill="black"/>
<path fill-rule="evenodd" clip-rule="evenodd" d="M6 0.75C6.27614 0.75 6.5 0.973858 6.5 1.25V2.5C6.5 2.77614 6.27614 3 6 3C5.72386 3 5.5 2.77614 5.5 2.5V1.25C5.5 0.973858 5.72386 0.75 6 0.75Z" fill="black"/>
</svg>

<svg xmlns="http://www.w3.org/2000/svg" width="12" height="12" fill="none" viewBox="0 0 12 12">
  <path fill="#000" fill-rule="evenodd" d="M2.246 2.746a.5.5 0 0 1 .708 0l.7.7a.5.5 0 1 1-.708.708l-.7-.7a.5.5 0 0 1 0-.708ZM.5 6.5A.5.5 0 0 1 1 6h1a.5.5 0 0 1 0 1H1a.5.5 0 0 1-.5-.5Zm9 0A.5.5 0 0 1 10 6h1a.5.5 0 0 1 0 1h-1a.5.5 0 0 1-.5-.5Zm.254-3.754a.5.5 0 0 1 0 .708l-.7.7a.5.5 0 1 1-.708-.708l.7-.7a.5.5 0 0 1 .708 0ZM.5 8.5A.5.5 0 0 1 1 8h10a.5.5 0 0 1 0 1H1a.5.5 0 0 1-.5-.5Zm0 2A.5.5 0 0 1 1 10h10a.5.5 0 0 1 0 1H1a.5.5 0 0 1-.5-.5Zm3.732-5.768A2.5 2.5 0 0 1 8.5 6.5a.5.5 0 0 1-1 0 1.5 1.5 0 0 0-3 0 .5.5 0 0 1-1 0 2.5 2.5 0 0 1 .732-1.768ZM6 .75a.5.5 0 0 1 .5.5V2.5a.5.5 0 0 1-1 0V1.25a.5.5 0 0 1 .5-.5Z" clip-rule="evenodd"/>
</svg>
